flaticon/arrows/left-arrow-5.svg

<svg xmlns="http://www.w3.org/2000/svg" width="32" height="32" viewBox="0 0 24 24">
    <path d="M 0 0 L 0 24 L 24 24 L 24 0 Z M 23.109375 23.109375 L 0.890625 23.109375 L 0.890625 0.890625 L 23.109375 0.890625 Z M 23.109375 23.109375"/>
    <path d="M 15.554688 20 C 15.667969 20 15.78125 19.957031 15.871094 19.871094 C 16.042969 19.695312 16.042969 19.414062 15.871094 19.242188 L 8.628906 12 L 15.871094 4.757812 C 16.042969 4.585938 16.042969 4.304688 15.871094 4.128906 C 15.695312 3.957031 15.414062 3.957031 15.242188 4.128906 L 7.371094 12 L 15.242188 19.871094 C 15.328125 19.957031 15.441406 20 15.554688 20 Z M 15.554688 20"/>
</svg>

<svg xmlns="http://www.w3.org/2000/svg" width="32" height="32" viewBox="0 0 24 24">
    <path d="M0 0v24h24V0zm23.11 23.11H.89V.89h22.22zm0 0"/>
    <path d="M15.555 20a.456.456 0 0 0 .316-.129.448.448 0 0 0 0-.629L8.63 12l7.242-7.242a.448.448 0 0 0 0-.63.448.448 0 0 0-.629 0L7.372 12l7.87 7.871a.44.44 0 0 0 .313.129zm0 0"/>
</svg>
